assets/dist/images/integrations/logos/mailjet.svg

<svg xmlns="http://www.w3.org/2000/svg" width="41" height="40" viewBox="0 0 41 40">
  <defs>
    <linearGradient id="mailjet-a" x1="65.656%" x2="14.439%" y1="26.131%" y2="63.633%">
      <stop offset="0%" stop-color="#F2AD54"/>
      <stop offset="100%" stop-color="#EC963B"/>
    </linearGradient>
  </defs>
  <path fill="url(#mailjet-a)" fill-rule="evenodd" d="M35.5266508,3.69738368 L31.1939172,6.07994596 L7.92422565,18.8928364 L6.50430677,19.672905 L6.49830625,19.672905 L10.7303546,13.4835376 L11.3392316,9.38023593 L35.5266508,3.69738368 Z M0,0.0705944378 L13.3070515,1.91487413 L23.4726506,3.32676288 L28.2642481,3.98858574 L29.4467049,4.14742322 L11.1980427,8.29484645 L11.0127323,8.16248188 L4.87984052,3.65326216 L0,0.0705944378 Z" transform="translate(2.5 12)"/>
</svg>

<svg xmlns="http://www.w3.org/2000/svg" width="41" height="40" viewBox="0 0 41 40"><defs><linearGradient id="a" x1="65.656%" x2="14.439%" y1="26.131%" y2="63.633%"><stop offset="0%" stop-color="#F2AD54"/><stop offset="100%" stop-color="#EC963B"/></linearGradient></defs><path fill="url(#a)" fill-rule="evenodd" d="M35.527 3.697L31.194 6.08 7.924 18.893l-1.42.78h-.006l4.232-6.19.61-4.103 24.187-5.683zM0 .071l13.307 1.844 10.166 1.412 4.791.662 1.183.158-18.249 4.148-.185-.133L4.88 3.653 0 .071z" transform="translate(2.5 12)"/></svg>
